!!!COM: Wacław z Szamotuł
!!!CDT: ~1524–~1560
!!!OTL: Nakłoń Panie
!!!TXO: Polish
!!!ODT:
!!!voices: 4
!!!pag:
!!!EFL:
!!!YEM: Creative Commons CC/BY/NC/SA 4.0
!!!ENC: Marcin Konik
!!!END: 2014-10-10
!!!EED: Marcin Konik
!!!EEV:
!!!ONB: Encoded in vim by Marcin Konik
!!!CharacterEncoding: utf-8
!!!RDF**kern: l=long note in original notation
!!!RDF**kern: i=editorial accidental
!!!RDF**kern: > = above
!!!RDF**kern < = below
!!muse2ps: z14jc180F
!!title: @{CDT}, @{OTL}, ed. @{ENC}
**kern	**kern	**kern	**kern
*part4	*part3	*part2	*part1
*staff4	*staff3	*staff2	*staff1
*clefF4	*clefGv2	*clefG2	*clefG2
*k[]	*k[]	*k[]	*k[]
*M2/2	*M2/2	*M2/2	*M2/2
*met(C|)	*met(C|)	*met(C|)	*met(C|)
=1-	=1-	=1-	=1-
2D	2d	2f	1a
2D	2d	2f	.
=2	=2	=2	=2
1G	4.B-	2d	2g
.	8c	.	.
.	4d	4g	2b-
.	4e	4g	.
=3	=3	=3	=3
4F	4f	4c	4a
4G	4d	8B-L	4g
.	.	8cJ	.
4D	[2d	8dL	2f
.	.	8eJ	.
[4B-	.	4f	.
=4	=4	=4	=4
4B-]	4d]	4d	4g
4A	4c	[4f	4a
2G	4.B-	8fL]	2b-
.	.	8eJ	.
.	.	4e	.
.	8c	.	.
=5	=5	=5	=5
2F	4d	2f	2a
.	4c	.	.
4r	4r	4r	4r
4D	4d	4f	4a
=6	=6	=6	=6
2G	2d	2g	2b-
4C	4c	4e	4g
4F	4c	4f	4a
=7	=7	=7	=7
2F	4.f	2c	2a
.	8e	.	.
4BB-	4d	4f	4f
[4F	[4c	[4f	[4a
=8	=8	=8	=8
4F]	4c]	4f]	8aL]
.	.	.	8gJ
4G	4B-	4d	2g
2D	2A	2d	.
.	.	.	4f#
=9	=9	=9	=9
1GG	1G	1d	1g
=10	=10	=10	=10
2D	2d	2f	1a
2D	2d	2f	.
=11	=11	=11	=11
1G	4.B-	2d	2g
.	8c	.	.
.	4d	4g	2b-
.	4e	4g	.
=12	=12	=12	=12
4F	4f	4c	4a
4G	4d	8B-L	4g
.	.	8cJ	.
4D	[2d	8dL	2f
.	.	8eJ	.
[4B-	.	4f	.
=13	=13	=13	=13
4B-]	4d]	4d	4g
4A	4c	[4f	4a
2G	4.B-	8fL]	2b-
.	.	8eJ	.
.	.	4e	.
.	8c	.	.
=14	=14	=14	=14
2F	4d	2f	2a
.	4c	.	.
4r	4r	4r	4r
4D	4d	4f	4a
=15	=15	=15	=15
2G	2d	2g	2b-
4C	4c	4e	4g
4F	4c	4f	4a
=16	=16	=16	=16
2F	4.f	2c	2a
.	8e	.	.
4BB-	4d	4f	4f
[4F	[4c	[4f	[4a
=17	=17	=17	=17
4F]	4c]	4f]	8aL]
.	.	.	8gJ
4G	4B-	4d	2g
2D	2A	2d	.
.	.	.	4f#
=18	=18	=18	=18
2GG	2G	2d	2g
4r	4r	4r	4r
4G	4d	4B-	4g
=19	=19	=19	=19
4B-	4B-	4d	4g
4A	4c	4c	4f
2G	4d	4B-	2b-
.	[4d	8GL	.
.	.	8AJ	.
=20	=20	=20	=20
4G	4d]	8B-L	4b-
.	.	8cJ	.
4F	4d	[4d	4a
2E	4.G	8dL]	2g
.	.	8c#J	.
.	.	4c#	.
.	8A	.	.
=21	=21	=21	=21
2D	4B-	2d	2f
.	4A	.	.
4r	4r	4r	4r
4D	4A	4d	4f
=22	=22	=22	=22
2G	2B-	4d	2g
.	.	4e	.
2F	2c	2f	2a
=23	=23	=23	=23
2B-	2d	4f	2b-
.	.	8dL	.
.	.	8eJ	.
4.F	4c	8fL	4.a
.	.	8gJ	.
.	4f	[4a	.
8G	.	.	8b-
=24	=24	=24	=24
4A	4e	4a]	4cc
4B-	4d	4g	2dd
2A	2e	2a	.
.	.	.	4cc#
=25	=25	=25	=25
2D	2d	2f	2dd
4r	4r	4r	4r
4D	4f	4d	4a
=26	=26	=26	=26
4A	4e	4c	2a
4D	4d	4f	.
2A	2c	2e	2a
=27	=27	=27	=27
2F	2f	2a	2cc
4G	4d	4g	4b-
4A	[4f	4c	[4a
=28	=28	=28	=28
2B-	8fL]	2d	4a]
.	8eJ	.	.
.	2d	.	4g
2A	.	2e	2a
.	4c#	.	.
=29	=29	=29	=29
2D	2d	2f	2a
4r	4r	4r	4r
4G	4d	4g	4b-
=30	=30	=30	=30
2G	2g	2d	2b-
4C	4e	4e	4g
4F	4c	4f	4a
=31	=31	=31	=31
2F	4.f	2c	2a
.	8e	.	.
4BB-	4d	4f	4f
[4F	[4c	[4f	[4a
=32	=32	=32	=32
4F]	4c]	4f]	8aL]
.	.	.	8gJ
4G	4B-	4d	2g
2D	2A	2d	.
.	.	.	4f#
=33	=33	=33	=33
1GG	1G	1d	1g
==	==	==	==
*-	*-	*-	*-
